src/icons/outline/ai/ai-summary.svg

<svg width="24" height="24" viewBox="0 0 24 24" fill="none" xmlns="http://www.w3.org/2000/svg">
<g clip-path="url(#clip0_6362_1114)">
<path d="M21.1094 5.71191C22.1496 5.71214 23 6.53771 23 7.56152V21.2207C22.9999 22.1948 22.1795 22.9999 21.1592 23H8.10352C7.18312 23 6.4223 22.344 6.28223 21.499C6.28223 21.4704 6.27321 21.4417 6.27246 21.4395H7.84277C7.9028 21.4991 7.99347 21.5283 8.10352 21.5283H21.1592C21.3491 21.5282 21.499 21.3995 21.499 21.2207V7.56152C21.499 7.35289 21.3293 7.18381 21.1094 7.18359V5.71191Z" fill="#3C3B44"/>
<path d="M18.0977 3.29688C19.148 3.29691 19.9881 4.13145 19.9883 5.15527V18.8145C19.9883 19.7986 19.1679 20.6045 18.1475 20.6045H5.0918C4.08136 20.6045 3.25098 19.7986 3.25098 18.8145V8.05859C3.48096 8.17781 3.741 8.23725 4.00098 8.2373C4.26109 8.2373 4.52185 8.17789 4.75195 8.05859V18.8145C4.75195 18.9934 4.90173 19.1328 5.0918 19.1328H18.1475C18.3375 19.1328 18.498 18.9934 18.498 18.8145V5.15527C18.4979 4.94663 18.3176 4.76761 18.0977 4.76758H8.00293C8.13294 4.53898 8.19335 4.29064 8.19336 4.03223C8.19336 3.77383 8.13291 3.52547 8.00293 3.29688H18.0977Z" fill="#3C3B44"/>
<path d="M11.6543 14.9082C12.0645 14.9082 12.4053 15.236 12.4053 15.6436C12.4053 16.0412 12.0645 16.3789 11.6543 16.3789H7.30273C6.88261 16.3788 6.55274 16.0412 6.55273 15.6436C6.55273 15.2459 6.8826 14.9083 7.30273 14.9082H11.6543Z" fill="#3C3B44"/>
<path d="M16.0166 11.7471C16.4268 11.7471 16.7666 12.0848 16.7666 12.4824H16.7568C16.7568 12.8899 16.4169 13.2177 16.0068 13.2178H7.30273C6.88266 13.2177 6.55282 12.8899 6.55273 12.4824C6.55273 12.0749 6.8826 11.7471 7.30273 11.7471H16.0166Z" fill="#3C3B44"/>
<path d="M16.0166 8.5752C16.4267 8.5752 16.7664 8.91306 16.7666 9.31055H16.7568C16.7568 9.7181 16.417 10.0468 16.0068 10.0469H7.30273C6.8826 10.0468 6.55273 9.7181 6.55273 9.31055C6.55294 8.90317 6.88274 8.57526 7.30273 8.5752H16.0166Z" fill="#3C3B44"/>
<path d="M4.00098 1C4.11103 1 4.21172 1.03979 4.30176 1.10938C4.38171 1.17894 4.44192 1.26866 4.46191 1.37793C4.68206 2.49113 5.55182 3.36632 6.62207 3.5752C6.73212 3.59508 6.83255 3.65467 6.89258 3.74414C6.96251 3.82364 7.00293 3.92295 7.00293 4.03223C7.0029 4.14147 6.96251 4.24068 6.89258 4.33008C6.83255 4.40961 6.73212 4.46938 6.62207 4.48926C5.55177 4.69816 4.68199 5.57323 4.46191 6.68652C4.4419 6.79584 4.38176 6.8855 4.30176 6.95508C4.21172 7.02467 4.11103 7.06445 4.00098 7.06445C3.89111 7.06437 3.79109 7.02455 3.70117 6.95508C3.62115 6.8855 3.56104 6.79585 3.54102 6.68652C3.32092 5.5731 2.4506 4.69803 1.37012 4.48926C1.2701 4.46936 1.16962 4.40959 1.09961 4.33008C1.03975 4.24074 1.00003 4.14138 1 4.03223C1 3.92287 1.03958 3.82287 1.09961 3.7334C1.16961 3.65392 1.27013 3.5951 1.37012 3.5752C2.45054 3.36644 3.32086 2.49127 3.54102 1.37793C3.56102 1.26859 3.62115 1.17896 3.70117 1.10938C3.79111 1.03986 3.89107 1.00009 4.00098 1Z" fill="#3C3B44"/>
</g>
<defs>
<clipPath id="clip0_6362_1114">
<rect width="24" height="24" fill="white"/>
</clipPath>
</defs>
</svg>

<svg xmlns="http://www.w3.org/2000/svg" width="24" height="24" fill="none" viewBox="0 0 24 24"><g fill="currentColor" clip-path="url(#a)"><path d="M21.11 5.712c1.04 0 1.89.826 1.89 1.85V21.22c0 .974-.82 1.779-1.84 1.779H8.103c-.92 0-1.682-.656-1.822-1.501a.2.2 0 0 0-.01-.06h1.57c.06.06.151.09.262.09h13.055c.19 0 .34-.13.34-.308V7.56a.38.38 0 0 0-.39-.377z"/><path d="M18.098 3.297c1.05 0 1.89.834 1.89 1.858v13.66c0 .984-.82 1.79-1.84 1.79H5.092c-1.01 0-1.841-.806-1.841-1.79V8.058c.23.119.49.178.75.178s.52-.06.75-.178v10.756c0 .178.15.318.34.318h13.057c.19 0 .35-.14.35-.319V5.155a.4.4 0 0 0-.4-.387H8.003c.13-.229.19-.477.19-.736 0-.258-.06-.507-.19-.735z"/><path d="M11.654 14.908c.41 0 .751.328.751.736 0 .397-.34.735-.75.735H7.302a.745.745 0 0 1-.75-.735c0-.398.33-.736.75-.736zm4.363-3.161c.41 0 .75.338.75.735h-.01c0 .408-.34.736-.75.736H7.303a.74.74 0 0 1-.75-.736c0-.407.33-.735.75-.735zm0-3.172c.41 0 .75.338.75.736h-.01c0 .407-.34.736-.75.736H7.303a.74.74 0 0 1-.75-.736c0-.408.33-.736.75-.736zM4.001 1c.11 0 .21.04.3.11.08.069.14.159.16.268.221 1.113 1.09 1.988 2.161 2.197.11.02.21.08.27.17.07.079.11.178.11.287a.475.475 0 0 1-.38.458c-1.07.208-1.94 1.083-2.16 2.197A.47.47 0 0 1 4 7.064a.47.47 0 0 1-.46-.378c-.22-1.113-1.09-1.988-2.17-2.197a.5.5 0 0 1-.271-.159.53.53 0 0 1-.1-.298c0-.11.04-.21.1-.299a.5.5 0 0 1 .27-.158c1.08-.209 1.95-1.084 2.171-2.197A.47.47 0 0 1 4.001 1"/></g><defs><clipPath id="a"><path fill="currentColor" d="M0 0h24v24H0z"/></clipPath></defs></svg>
